!!!COM: Bach, Johann Sebastian
!!!OTL@@DE: 50. In allen meinen Taten
!!!OTL@EN: In all my deeds
!!!SCA: 244.37
**harm	**root	**kern	**kern	**kern	**kern
*staff2	*	*staff2	*staff2	*staff1	*staff1
*Iorgan	*Iorgan	*Iorgan	*Iorgan	*Iorgan	*Iorgan
!	!	!bass	!tenor	!alto	!sprno
*	*	*clefF4	*clefF4	*clefG2	*clefG2
*k[]	*k[]	*k[]	*k[]	*k[]	*k[]
*met(c)	*met(c)	*met(c)	*met(c)	*met(c)	*met(c)
*C:	*C:	*C:	*C:	*C:	*C:
*M4/4	*M4/4	*M4/4	*M4/4	*M4/4	*M4/4
*MM60	*MM60	*MM60	*MM60	*MM60	*MM60
I	4FF	4C	4G	4c	4e
=1	=1	=1	=1	=1	=1
IV	4BB-	4F	4A	4A	4c
viiob	4EE	8EL	8GL	4B	4d
.	.	8DJ	8FJ	.	.
I	2FF	4.C	4.E	8cL	(8eL
.	.	.	.	8dJ	8fJ
.	.	.	.	4e	4g)
.	.	8BB	8D	.	.
=2	=2	=2	=2	=2	=2
IV7b	4BB-	4AA	4C	4e	2f
V7b	4CC	4BB	4G	4d	.
I;	4FF;	4C;	4G;	4c;	4e;
I	4FF	8CL	4G	4c	8eL
.	.	8DJ	.	.	8fJ
=3	=3	=3	=3	=3	=3
Ib	4FF	4E	4G	8cL	4g
.	.	.	.	8BJ	.
Ib	4FF	8EEL	4G	8cL	4g
.	.	8FFJ	.	8dJ	.
V	4CC	4GG	4G	8BL	4d
.	.	.	.	8AJ	.
iiib	4AA	4EE	8GL	4G	(8eL
.	.	.	8F#J	.	8dJ
=4	=4	=4	=4	=4	=4
viio/V	2BB	2AA	8EL	4G	2c)
.	.	.	8DJ	.	.
.	.	.	4C	4F#	.
V;	4CC;	4GG;	4D;	4G;	4B;
V7	4CC	4GG	4Fy	4B	4G
=5	=5	=5	=5	=5	=5
vi	4DD	4AA	4E	4A	4c
Vb	4CC	4BB	4D	4G	4d
I	4FF	4C	4C	4G	8eL
.	.	.	.	.	16fL
.	.	.	.	.	16gJJ
IV	4BB-	4FF	4C	4A	8fL
.	.	.	.	.	8eJ
=6	=6	=6	=6	=6	=6
V;	2.CC;	2.GG;	2.G;	2.B;	2.d;
Vb/VI	4AA	4GG#	4E	4B	4e
=7	=7	=7	=7	=7	=7
!!linebreak: 2
vi	4DD	4AA	4E	4A	4c
Vb	4CC	4BB	4D	4G	4d
I	4FF	4C	8CL	4G	8eL
.	.	.	8DJ	.	8fJ
V7b/II	4DD	4C#	4E	4A	4g
=8	=8	=8	=8	=8	=8
ii	2GG	4D	8DL	4A	2f
.	.	.	8EJ	.	.
.	.	4DD	8FL	4d	.
.	.	.	8GJ	.	.
V/II;	4DD;	4AA;	4A;	4c#;	4e;
vi	4DD	4A	4A	4c	8eL
.	.	.	.	.	8fJ
=9	=9	=9	=9	=9	=9
Ib	4FF	8EL	8GL	4c	4g
.	.	8D	8F	.	.
Ib	4FF	8E	8G	4c	4g
.	.	8FJ	8AJ	.	.
V	4CC	4G	4B	8BL	4d
.	.	.	.	8AJ	.
I	4FF	8CL	4c	4G	(8eL
.	.	8BBJ	.	.	8dJ
=10	=10	=10	=10	=10	=10
vi7	4DD	8AAL	8CL	4G	2c)
.	.	8GGJ	8EJ	.	.
V7c/V	4GG	4AA	8DL	4F#	.
.	.	.	8CJ	.	.
V;	4CC;	4GG;	4D;	4G;	4B;
V7c	4CC	4FF	4BB	4D	4G
=11	=11	=11	=11	=11	=11
Ib	4FF	4EE	8CL	4G	4c
.	.	.	8GJ	.	.
ii	4GG	4DD	8AL	4F	4d
.	.	.	8BJ	.	.
I	4FF	4CC	8cL	8EL	4e
.	.	.	8GJ	8GJ	.
IV7b	4BB-	4AA	8FL	4c	8dL
.	.	.	8CJ	.	16eL
.	.	.	.	.	16fJJ
=12	=12	=12	=12	=12	=12
Ic	4FF	8GGL	4.G	4c	4e
.	.	8FFJ	.	.	.
V7	4CC	4GG	.	4B	4d
.	.	.	8F	.	.
I;	4FF;	4CC;	4E;	4G;	4c;
==	==	==	==	==	==
*-	*-	*-	*-	*-	*-
!!!ENC: Craig Stuart Sapp
!!!END: 2004/12/06/
!!!ONB: Harmony and Root analysis done manually by Craig Sapp
!!chor2scor: -l 2 -s 0.6 -o %b.pmx
